source/img/icon-like.svg

<svg version="1" xmlns="http://www.w3.org/2000/svg" width="22" height="20"><path d="M12.383 3.646l-.637 2.929L11.219 9H19.9v2l.001.058L17 18H8V8.029l.014-.015 4.369-4.368M2 10v8-8M13.2 0L6.6 6.6c-.4.3-.6.8-.6 1.4v10c0 1.1.9 2 2 2h9c.8 0 1.5-.5 1.8-1.2l3-7.1c.1-.2.1-.5.1-.7V9h.1c0-1.1-.9-2-2-2h-6.3l1-4.6v-.3c0-.4-.2-.8-.4-1.1l-1.1-1zM4 8H0v12h4V8zm18 1v.044V9z"/></svg>

<svg xmlns="http://www.w3.org/2000/svg" viewBox="0 0 22 20"><path d="M12.38,3.65l-.63,2.92L11.22,9H19.9v2.06L17,18H8V8l4.37-4.36M2,10v0M13.2,0,6.6,6.6A1.68,1.68,0,0,0,6,8V18a2,2,0,0,0,2,2h9a2,2,0,0,0,1.8-1.2l3-7.1a1.7,1.7,0,0,0,.1-.7V9H22a2,2,0,0,0-2-2H13.7l1-4.6V2.1A2.1,2.1,0,0,0,14.3,1L13.2,0ZM4,8H0V20H4V8ZM22,9V9Z"/></svg>
